;FLAVOR:Marlin
;TIME:3640
;Filament used: 1.35674m
;Layer height: 0.15
;MINX:92.765
;MINY:93.374
;MINZ:0.08
;MAXX:123.305
;MAXY:133.231
;MAXZ:27.28
;Generated with Cura_SteamEngine 4.8.0
M140 S60
M105
M190 S60
M104 S210
M105
M109 S210
M82 ;absolute extrusion mode
M201 X500.00 Y500.00 Z100.00 E5000.00 ;Setup machine max acceleration
M203 X500.00 Y500.00 Z10.00 E50.00 ;Setup machine max feedrate
M204 P500.00 R1000.00 T500.00 ;Setup Print/Retract/Travel acceleration
M205 X8.00 Y8.00 Z0.40 E5.00 ;Setup Jerk
M220 S100 ;Reset Feedrate
M221 S100 ;Reset Flowrate

G28 ;Home
M420 S1 Z2 ;Enable ABL using saved Mesh and Fade Height

G92 E0 ;Reset Extruder
G1 Z2.0 F3000 ;Move Z Axis up
G1 X10.1 Y20 Z0.28 F5000.0 ;Move to start position
G1 X10.1 Y200.0 Z0.28 F1500.0 E15 ;Draw the first line
G1 X10.4 Y200.0 Z0.28 F5000.0 ;Move to side a little
G1 X10.4 Y20 Z0.28 F1500.0 E30 ;Draw the second line
G92 E0 ;Reset Extruder
G1 Z2.0 F3000 ;Move Z Axis up

G92 E0
G92 E0
G1 F1500 E-6.5
;LAYER_COUNT:181
;LAYER:0
M107
G1 F300 Z0.28
;MESH:Screw.STL
G0 F6000 X105.658 Y102.297 Z0.28
;TYPE:WALL-INNER
G1 F300 Z0.08
G1 F1500 E0
G1 F1200 X107.722 Y102.297 E0.02746
G1 X107.722 Y98.338 E0.08013
G1 X105.658 Y98.338 E0.10759
G1 X105.658 Y96.274 E0.13505
G1 X101.699 Y96.274 E0.18772
G1 X101.699 Y98.338 E0.21518
G1 X99.635 Y98.338 E0.24264
G1 X99.635 Y102.297 E0.29531
G1 X101.699 Y102.297 E0.32277
G1 X101.699 Y104.361 E0.35023
G1 X105.658 Y104.361 E0.4029
G1 X105.658 Y102.297 E0.43036
G0 F6000 X105.258 Y101.897
;TYPE:WALL-OUTER
G1 F1200 X107.322 Y101.897 E0.45782
G1 X107.322 Y98.738 E0.49985
G1 X105.258 Y98.738 E0.52731
G1 X105.258 Y96.674 E0.55477
G1 X102.099 Y96.674 E0.59679
G1 X102.099 Y98.738 E0.62425
G1 X100.035 Y98.738 E0.65171
G1 X100.035 Y101.897 E0.69374
G1 X102.099 Y101.897 E0.7212
G1 X102.099 Y103.961 E0.74866
G1 X105.258 Y103.961 E0.79069
G1 X105.258 Y101.897 E0.81815
G1 F1500 E-5.68185
G1 F300 Z0.28
G0 F6000 X104.449 Y106.815 Z0.28
;TYPE:WALL-INNER
G1 F300 Z0.08
G1 F1500 E0.81815
G1 F1200 X103.929 Y106.855 E0.82508
G1 X103.428 Y106.856 E0.83175
G1 X102.909 Y106.817 E0.83867
G1 X102.378 Y106.73 E0.84583
G1 X101.897 Y106.614 E0.85242
G1 X101.409 Y106.454 E0.85925
G1 X100.909 Y106.245 E0.86646
G1 X100.845 Y106.214 E0.8674
G1 X100.435 Y105.999 E0.87356
G1 X100.027 Y105.748 E0.87994
G1 X99.602 Y105.435 E0.88696
G1 X99.198 Y105.086 E0.89406
G1 X98.849 Y104.731 E0.90068
G1 X98.559 Y104.39 E0.90664
G1 X98.514 Y104.334 E0.9076
G1 X98.204 Y103.901 E0.91468
G1 X98.143 Y103.802 E0.91623
G1 X97.933 Y103.448 E0.9217
G1 X97.714 Y103.007 E0.92825
G1 X97.516 Y102.517 E0.93528
G1 X97.36 Y102.017 E0.94225
G1 X97.271 Y101.643 E0.94737
G1 X97.177 Y101.049 E0.95537
G1 X97.136 Y100.317 E0.96512
G1 X97.177 Y99.584 E0.97489
G1 X97.27 Y98.995 E0.98282
G1 X97.355 Y98.632 E0.98778
G1 X97.518 Y98.111 E0.99505
G1 X97.715 Y97.625 E1.00202
G1 X97.933 Y97.184 E1.00857
G1 X98.198 Y96.742 E1.01542
G1 X98.509 Y96.306 E1.02255
G1 X98.861 Y95.89 E1.0298
G1 X99.19 Y95.557 E1.03603
G1 X99.605 Y95.196 E1.04334
G1 X100.029 Y94.886 E1.05033
G1 X100.447 Y94.628 E1.05687
G1 X100.905 Y94.391 E1.06373
G1 X101.413 Y94.178 E1.07106
G1 X101.903 Y94.02 E1.07791
G1 X102.224 Y93.941 E1.0823
G1 X102.388 Y93.903 E1.08454
G1 X102.932 Y93.816 E1.09187
G1 X103.428 Y93.779 E1.09849
G1 X103.926 Y93.778 E1.10512
G1 X104.452 Y93.819 E1.11213
G1 X104.977 Y93.904 E1.11921
G1 X105.46 Y94.02 E1.12582
G1 X105.95 Y94.18 E1.13268
G1 X106.434 Y94.383 E1.13966
G1 X106.886 Y94.615 E1.14642
G1 X107.336 Y94.891 E1.15344
G1 X107.754 Y95.199 E1.16035
G1 X108.16 Y95.55 E1.16749
G1 X108.297 Y95.687 E1.17007
G1 X108.522 Y95.919 E1.17437
G1 X108.835 Y96.29 E1.18082
G1 X109.157 Y96.741 E1.1882
G1 X109.211 Y96.828 E1.18956
G1 X109.416 Y97.173 E1.1949
G1 X109.645 Y97.632 E1.20172
G1 X109.853 Y98.15 E1.20915
G1 X109.997 Y98.618 E1.21566
G1 X110.094 Y99.035 E1.22136
G1 X110.18 Y99.584 E1.22875
G1 X110.221 Y100.317 E1.23852
G1 X110.18 Y101.051 E1.2483
G1 X110.089 Y101.634 E1.25615
G1 X110 Y102.005 E1.26123
G1 X109.842 Y102.515 E1.26833
G1 X109.642 Y103.01 E1.27543
G1 X109.43 Y103.437 E1.28177
G1 X109.215 Y103.8 E1.28739
G1 X109.152 Y103.902 E1.28898
G1 X108.843 Y104.335 E1.29606
G1 X108.534 Y104.703 E1.30245
G1 X108.299 Y104.945 E1.30694
G1 X108.136 Y105.107 E1.31
G1 X107.759 Y105.432 E1.31662
G1 X107.328 Y105.749 E1.32374
G1 X106.915 Y106.003 E1.33019
G1 X106.513 Y106.214 E1.33623
G1 X106.455 Y106.242 E1.33708
G1 X105.951 Y106.454 E1.34436
G1 X105.454 Y106.614 E1.35131
G1 X105.133 Y106.693 E1.3557
G1 X104.973 Y106.73 E1.35789
G1 X104.449 Y106.815 E1.36495
G0 F6000 X104.499 Y107.213
;TYPE:WALL-OUTER
G1 F1200 X103.946 Y107.255 E1.37233
G1 X103.412 Y107.256 E1.37943
G1 X102.859 Y107.214 E1.38681
G1 X102.304 Y107.123 E1.39429
G1 X101.795 Y107.001 E1.40126
G1 X101.382 Y106.867 E1.40703
G1 X101.266 Y106.828 E1.40866
G1 X100.737 Y106.607 E1.41629
G1 X100.668 Y106.573 E1.41731
G1 X100.245 Y106.352 E1.42366
G1 X99.801 Y106.078 E1.4306
G1 X99.352 Y105.748 E1.43802
G1 X98.92 Y105.374 E1.44562
G1 X98.554 Y105.002 E1.45256
G1 X98.247 Y104.641 E1.45887
G1 X98.202 Y104.585 E1.45982
G1 X97.866 Y104.116 E1.4675
G1 X97.802 Y104.012 E1.46912
G1 X97.582 Y103.641 E1.47486
G1 X97.347 Y103.167 E1.4819
G1 X97.14 Y102.654 E1.48926
G1 X97.125 Y102.611 E1.48986
G1 X96.974 Y102.123 E1.49666
G1 X96.878 Y101.717 E1.50221
G1 X96.779 Y101.095 E1.51059
G1 X96.736 Y100.317 E1.52096
G1 X96.779 Y99.539 E1.53132
G1 X96.877 Y98.919 E1.53967
G1 X96.973 Y98.512 E1.54524
G1 X97.14 Y97.979 E1.55267
G1 X97.348 Y97.465 E1.56005
G1 X97.581 Y96.995 E1.56702
G1 X97.865 Y96.52 E1.57439
G1 X98.196 Y96.057 E1.58196
G1 X98.559 Y95.627 E1.58945
G1 X98.927 Y95.255 E1.59641
G1 X99.351 Y94.886 E1.60389
G1 X99.801 Y94.557 E1.6113
G1 X100.252 Y94.278 E1.61836
G1 X100.736 Y94.028 E1.6256
G1 X101.269 Y93.805 E1.63329
G1 X101.38 Y93.767 E1.63485
G1 X101.789 Y93.636 E1.64057
G1 X102.134 Y93.551 E1.64529
G1 X102.308 Y93.511 E1.64767
G1 X102.856 Y93.423 E1.65505
G1 X102.901 Y93.417 E1.65566
G1 X103.411 Y93.379 E1.66246
G1 X103.944 Y93.378 E1.66955
G1 X104.499 Y93.421 E1.67696
G1 X105.053 Y93.511 E1.68442
G1 X105.562 Y93.633 E1.69139
G1 X105.975 Y93.767 E1.69716
G1 X106.101 Y93.809 E1.69893
G1 X106.604 Y94.02 E1.70619
G1 X107.082 Y94.266 E1.71334
G1 X107.371 Y94.442 E1.71784
G1 X107.56 Y94.56 E1.72081
G1 X108.004 Y94.886 E1.72813
G1 X108.437 Y95.261 E1.73576
G1 X108.584 Y95.408 E1.73852
G1 X108.819 Y95.65 E1.74301
G1 X109.155 Y96.049 E1.74995
G1 X109.483 Y96.509 E1.75747
G1 X109.555 Y96.624 E1.75927
G1 X109.771 Y96.988 E1.7649
G1 X110.01 Y97.468 E1.77203
G1 X110.23 Y98.017 E1.7799
G1 X110.386 Y98.524 E1.78696
G1 X110.446 Y98.771 E1.79034
G1 X110.485 Y98.95 E1.79278
G1 X110.578 Y99.539 E1.80071
G1 X110.621 Y100.317 E1.81108
G1 X110.578 Y101.095 E1.82145
G1 X110.481 Y101.713 E1.82977
G1 X110.383 Y102.121 E1.83535
G1 X110.218 Y102.654 E1.84277
G1 X110.009 Y103.17 E1.85018
G1 X109.778 Y103.635 E1.85709
G1 X109.555 Y104.011 E1.8629
G1 X109.485 Y104.124 E1.86467
G1 X109.163 Y104.575 E1.87204
G1 X108.825 Y104.978 E1.87904
G1 X108.586 Y105.224 E1.88361
G1 X108.403 Y105.405 E1.88703
G1 X108.009 Y105.744 E1.89394
G1 X107.55 Y106.082 E1.90153
G1 X107.114 Y106.35 E1.90834
G1 X106.691 Y106.572 E1.91469
G1 X106.61 Y106.611 E1.91589
G1 X106.095 Y106.827 E1.92332
G1 X105.977 Y106.867 E1.92498
G1 X105.568 Y106.998 E1.93069
G1 X105.223 Y107.083 E1.93542
G1 X105.049 Y107.123 E1.93779
G1 X104.499 Y107.213 E1.94521
G0 F6000 X104.447 Y106.777
G0 X104.394 Y106.429
;TYPE:SKIN
G1 F1200 X103.926 Y106.465 E1.95145
G1 X103.431 Y106.466 E1.95804
G1 X102.956 Y106.431 E1.96437
G1 X102.462 Y106.349 E1.97104
G1 X102.009 Y106.24 E1.97723
G1 X101.544 Y106.088 E1.98374
G1 X101.064 Y105.887 E1.99067
G1 X101.014 Y105.863 E1.9914
G1 X100.628 Y105.66 E1.99721
G1 X100.252 Y105.429 E2.00308
G1 X99.838 Y105.124 E2.00992
G1 X99.467 Y104.803 E2.01645
G1 X99.132 Y104.462 E2.02281
G1 X98.823 Y104.096 E2.02918
G1 X98.525 Y103.68 E2.03599
G1 X98.274 Y103.261 E2.04248
G1 X98.069 Y102.846 E2.04864
G1 X97.886 Y102.392 E2.05515
G1 X97.739 Y101.921 E2.06172
G1 X97.655 Y101.571 E2.06651
G1 X97.565 Y101.006 E2.07412
G1 X97.528 Y100.317 E2.0833
G1 X97.565 Y99.627 E2.09249
G1 X97.655 Y99.063 E2.10009
G1 X97.735 Y98.721 E2.10476
G1 X97.888 Y98.235 E2.11154
G1 X98.07 Y97.785 E2.118
G1 X98.268 Y97.385 E2.12394
G1 X98.529 Y96.95 E2.13069
G1 X98.817 Y96.548 E2.13727
G1 X99.149 Y96.154 E2.14412
G1 X99.467 Y95.832 E2.15014
G1 X99.853 Y95.496 E2.15695
G1 X100.24 Y95.214 E2.16332
G1 X100.636 Y94.97 E2.16951
G1 X101.084 Y94.738 E2.17622
G1 X101.542 Y94.546 E2.18283
G1 X102.002 Y94.397 E2.18926
G1 X102.463 Y94.286 E2.19557
G1 X102.985 Y94.202 E2.2026
G1 X103.43 Y94.169 E2.20854
G1 X103.921 Y94.168 E2.21507
G1 X104.398 Y94.205 E2.22144
G1 X104.904 Y94.288 E2.22826
G1 X105.347 Y94.394 E2.23432
G1 X105.826 Y94.55 E2.24102
G1 X106.256 Y94.73 E2.24722
G1 X106.698 Y94.957 E2.25383
G1 X107.11 Y95.21 E2.26026
G1 X107.518 Y95.51 E2.267
G1 X107.905 Y95.845 E2.27381
G1 X108.229 Y96.177 E2.27998
G1 X108.527 Y96.53 E2.28613
G1 X108.832 Y96.957 E2.29311
G1 X108.878 Y97.03 E2.29426
G1 X109.071 Y97.355 E2.29929
G1 X109.289 Y97.792 E2.30578
G1 X109.485 Y98.281 E2.31279
G1 X109.62 Y98.719 E2.31889
G1 X109.708 Y99.096 E2.32404
G1 X109.792 Y99.627 E2.33119
G1 X109.829 Y100.317 E2.34039
G1 X109.792 Y101.009 E2.34961
G1 X109.704 Y101.567 E2.35712
G1 X109.627 Y101.89 E2.36154
G1 X109.471 Y102.394 E2.36856
G1 X109.289 Y102.845 E2.37503
G1 X109.089 Y103.25 E2.38104
G1 X108.883 Y103.595 E2.38638
G1 X108.828 Y103.685 E2.38779
G1 X108.541 Y104.087 E2.39436
G1 X108.239 Y104.447 E2.40061
G1 X108.024 Y104.668 E2.40471
G1 X107.867 Y104.824 E2.40766
G1 X107.514 Y105.128 E2.41385
G1 X107.113 Y105.423 E2.42048
G1 X106.718 Y105.666 E2.42665
G1 X106.345 Y105.862 E2.43225
G1 X106.291 Y105.888 E2.43305
G1 X105.812 Y106.089 E2.43996
G1 X105.357 Y106.237 E2.44633
G1 X104.897 Y106.347 E2.45262
G1 X104.394 Y106.429 E2.4594
G1 F1500 E-4.0406
G1 F300 Z0.28
G0 F6000 X106.048 Y104.751 Z0.28
G1 F300 Z0.08
G1 F1500 E2.4594
G1 F1200 X106.048 Y102.687 E2.48686
G1 X108.112 Y102.687 E2.51432
G1 X108.112 Y97.948 E2.57737
G1 X106.048 Y97.948 E2.60483
G1 X106.048 Y95.884 E2.63229
G1 X101.309 Y95.884 E2.69533
G1 X101.309 Y97.948 E2.72279
G1 X99.245 Y97.948 E2.75025
G1 X99.245 Y102.687 E2.8133
G1 X101.309 Y102.687 E2.84076
G1 X101.309 Y104.751 E2.86822
G1 X106.048 Y104.751 E2.93127
G1 F1500 E-3.56873
G1 F300 Z0.28
G0 F6000 X99.707 Y104.798 Z0.28
G1 F300 Z0.08
G1 F1500 E2.93127
G1 F1200 X99.181 Y104.272 E2.94116
G0 F6000 X99.452 Y102.846
G1 F1200 X101.148 Y104.542 E2.97307
G0 F6000 X101.516 Y104.91
G1 F1200 X102.857 Y106.251 E2.99831
G0 F6000 X103.475 Y106.304
G1 F1200 X102.082 Y104.91 E3.02452
G0 F6000 X102.647 Y104.91
G1 F1200 X104.033 Y106.295 E3.05059
G0 F6000 X104.545 Y106.242
G1 F1200 X103.213 Y104.91 E3.07565
G0 F6000 X103.779 Y104.91
G1 F1200 X105.02 Y106.151 E3.099
G0 F6000 X105.466 Y106.032
G1 F1200 X104.344 Y104.91 E3.12011
G0 F6000 X104.91 Y104.91
G1 F1200 X105.884 Y105.884 E3.13844
G0 F6000 X106.28 Y105.714
G1 F1200 X105.476 Y104.91 E3.15356
G0 F6000 X106.041 Y104.91
G1 F1200 X106.65 Y105.519 E3.16502
G0 F6000 X107 Y105.303
G1 F1200 X106.207 Y104.51 E3.17994
G0 F6000 X106.207 Y103.944
G1 F1200 X107.327 Y105.064 E3.20102
G0 F6000 X107.636 Y104.808
G1 F1200 X106.207 Y103.379 E3.2279
G0 F6000 X106.241 Y102.847
G1 F1200 X107.929 Y104.535 E3.25966
G0 F6000 X108.202 Y104.242
G1 F1200 X106.807 Y102.847 E3.28591
G0 F6000 X107.372 Y102.847
G1 F1200 X108.456 Y103.93 E3.30629
G0 F6000 X108.691 Y103.6
G1 F1200 X107.938 Y102.847 E3.32046
G0 F6000 X108.271 Y102.614
G1 F1200 X108.903 Y103.246 E3.33235
G0 F6000 X109.095 Y102.873
G1 F1200 X108.271 Y102.048 E3.34786
G0 F6000 X108.271 Y101.483
G1 F1200 X109.265 Y102.477 E3.36657
G0 F6000 X109.409 Y102.055
G1 F1200 X108.271 Y100.917 E3.38798
G0 F6000 X108.271 Y100.351
G1 F1200 X109.528 Y101.609 E3.41164
G0 F6000 X109.61 Y101.125
G1 F1200 X108.271 Y99.786 E3.43683
G0 F6000 X108.271 Y99.22
G1 F1200 X109.652 Y100.601 E3.46281
G0 F6000 X109.653 Y100.036
G1 F1200 X108.271 Y98.654 E3.48882
G0 F6000 X108.271 Y98.089
G1 F1200 X109.595 Y99.412 E3.51372
G0 F6000 X109.446 Y98.698
G1 F1200 X105.294 Y94.546 E3.59184
G0 F6000 X104.578 Y94.396
G1 F1200 X105.906 Y95.723 E3.61681
G0 F6000 X106.206 Y96.024
G1 F1200 X107.97 Y97.787 E3.64999
G0 F6000 X107.404 Y97.787
G1 F1200 X106.206 Y96.59 E3.67252
G0 F6000 X106.206 Y97.155
G1 F1200 X106.838 Y97.787 E3.68441
G0 F6000 X106.273 Y97.787
G1 F1200 X106.206 Y97.721 E3.68567
G1 F1500 E-2.81433
G1 F300 Z0.28
G0 F6000 X105.34 Y95.723 Z0.28
G1 F300 Z0.08
G1 F1500 E3.68567
G1 F1200 X103.946 Y94.33 E3.71188
G0 F6000 X103.383 Y94.332
G1 F1200 X104.774 Y95.723 E3.73805
G0 F6000 X104.209 Y95.723
G1 F1200 X102.867 Y94.382 E3.76329
G0 F6000 X102.388 Y94.468
G1 F1200 X103.643 Y95.723 E3.78691
G0 F6000 X103.077 Y95.723
G1 F1200 X101.939 Y94.585 E3.80832
G0 F6000 X101.517 Y94.728
G1 F1200 X102.512 Y95.723 E3.82704
G0 F6000 X101.946 Y95.723
G1 F1200 X101.121 Y94.899 E3.84255
G0 F6000 X100.749 Y95.092
G1 F1200 X101.38 Y95.723 E3.85442
G0 F6000 X101.148 Y96.057
G1 F1200 X100.396 Y95.305 E3.86857
G0 F6000 X100.065 Y95.54
G1 F1200 X101.148 Y96.623 E3.88895
G0 F6000 X101.148 Y97.188
G1 F1200 X99.753 Y95.793 E3.9152
G0 F6000 X99.459 Y96.065
G1 F1200 X101.148 Y97.754 E3.94697
G0 F6000 X100.616 Y97.787
G1 F1200 X99.185 Y96.356 E3.9739
G0 F6000 X98.928 Y96.665
G1 F1200 X100.05 Y97.787 E3.99501
G0 F6000 X99.484 Y97.787
G1 F1200 X98.692 Y96.995 E4.00991
G0 F6000 X98.476 Y97.345
G1 F1200 X99.084 Y97.953 E4.02135
G0 F6000 X99.084 Y98.519
G1 F1200 X98.281 Y97.715 E4.03647
G0 F6000 X98.109 Y98.109
G1 F1200 X99.084 Y99.084 E4.05481
G0 F6000 X99.084 Y99.65
G1 F1200 X97.962 Y98.528 E4.07592
G0 F6000 X97.84 Y98.971
G1 F1200 X99.084 Y100.216 E4.09934
G0 F6000 X99.084 Y100.781
G1 F1200 X97.754 Y99.451 E4.12436
G0 F6000 X97.706 Y99.969
G1 F1200 X99.084 Y101.347 E4.15029
G0 F6000 X99.084 Y101.913
G1 F1200 X97.699 Y100.527 E4.17635
G0 F6000 X97.749 Y101.143
G1 F1200 X99.084 Y102.478 E4.20147
G0 F6000 X98.187 Y102.712
G1 F1200 X101.276 Y105.801 E4.25959
G0 F6000 X102.149 Y106.109
G1 F1200 X97.884 Y101.844 E4.33984
G1 F1500 E-2.16016
G1 F300 Z0.28
G0 F6000 X100.018 Y102.846 Z0.28
G1 F300 Z0.08
G1 F1500 E4.33984
G1 F1200 X101.148 Y103.977 E4.36111
G0 F6000 X101.148 Y103.411
G1 F1200 X100.583 Y102.846 E4.37174
G1 F1500 E-2.12826
G1 F300 Z0.28
G0 F6000 X106.19 Y94.876 Z0.28
G1 F300 Z0.08
G1 F1500 E4.37174
G1 F1200 X109.115 Y97.802 E4.42678
G1 F1500 E-2.07322
G1 F300 Z0.28
;MESH:Barrel.STL
G0 F6000 X114.381 Y111.989 Z0.28
;TYPE:WALL-INNER
G1 F300 Z0.08
G1 F1500 E4.42678
G1 F1200 X114.381 Y114.052 E4.45423
G1 X118.358 Y114.052 E4.50714
G1 X118.358 Y111.989 E4.53458
G1 X120.422 Y111.989 E4.56204
G1 X120.422 Y108.011 E4.61496
G1 X118.358 Y108.011 E4.64242
G1 X118.358 Y105.948 E4.66987
G1 X114.381 Y105.948 E4.72278
G1 X114.381 Y108.011 E4.75023
G1 X112.317 Y108.011 E4.77769
G1 X112.317 Y111.989 E4.83061
G1 X114.381 Y111.989 E4.85807
G0 F6000 X114.781 Y111.589
;TYPE:WALL-OUTER
G1 F1200 X114.781 Y113.652 E4.88552
G1 X117.958 Y113.652 E4.92778
G1 X117.958 Y111.589 E4.95523
G1 X120.022 Y111.589 E4.98269
G1 X120.022 Y108.411 E5.02497
G1 X117.958 Y108.411 E5.05243
G1 X117.958 Y106.348 E5.07988
G1 X114.781 Y106.348 E5.12214
G1 X114.781 Y108.411 E5.14959
G1 X112.717 Y108.411 E5.17705
G1 X112.717 Y111.589 E5.21933
G1 X114.781 Y111.589 E5.24679
G1 F1500 E-1.25321
G1 F300 Z0.28
G0 F6000 X116.37 Y116.542 Z0.28
;TYPE:WALL-INNER
G1 F300 Z0.08
G1 F1500 E5.24679
G1 F1200 X115.457 Y116.479 E5.25896
G1 X115.089 Y116.417 E5.26393
