;FLAVOR:Marlin
;TIME:1934
;Filament used: 0.471893m
;Layer height: 0.15
;MINX:103.057
;MINY:93.653
;MINZ:0.08
;MAXX:118.499
;MAXY:123.879
;MAXZ:27.28
;Generated with Cura_SteamEngine 4.8.0
M140 S60
M105
M190 S60
M104 S210
M105
M109 S210
M82 ;absolute extrusion mode
M201 X500.00 Y500.00 Z100.00 E5000.00 ;Setup machine max acceleration
M203 X500.00 Y500.00 Z10.00 E50.00 ;Setup machine max feedrate
M204 P500.00 R1000.00 T500.00 ;Setup Print/Retract/Travel acceleration
M205 X8.00 Y8.00 Z0.40 E5.00 ;Setup Jerk
M220 S100 ;Reset Feedrate
M221 S100 ;Reset Flowrate

G28 ;Home
M420 S1 Z2 ;Enable ABL using saved Mesh and Fade Height

G92 E0 ;Reset Extruder
G1 Z2.0 F3000 ;Move Z Axis up
G1 X10.1 Y20 Z0.28 F5000.0 ;Move to start position
G1 X10.1 Y200.0 Z0.28 F1500.0 E15 ;Draw the first line
G1 X10.4 Y200.0 Z0.28 F5000.0 ;Move to side a little
G1 X10.4 Y20 Z0.28 F1500.0 E30 ;Draw the second line
G92 E0 ;Reset Extruder
G1 Z2.0 F3000 ;Move Z Axis up

G92 E0
G92 E0
G1 F1500 E-6.5
;LAYER_COUNT:181
;LAYER:0
M107
G1 F300 Z0.28
;MESH:Barrel.STL
G0 F6000 X108.042 Y102.546 Z0.28
;TYPE:WALL-INNER
G1 F300 Z0.08
G1 F1500 E0
G1 F1200 X108.042 Y104.61 E0.02746
G1 X111.958 Y104.61 E0.07956
G1 X111.958 Y102.546 E0.10702
G1 X114.021 Y102.546 E0.13446
G1 X114.021 Y98.63 E0.18656
G1 X111.958 Y98.63 E0.21401
G1 X111.958 Y96.567 E0.24146
G1 X108.042 Y96.567 E0.29355
G1 X108.042 Y98.63 E0.321
G1 X105.979 Y98.63 E0.34845
G1 X105.979 Y102.546 E0.40055
G1 X108.042 Y102.546 E0.42799
G0 F6000 X108.442 Y102.146
;TYPE:WALL-OUTER
G1 F1200 X108.442 Y104.21 E0.45545
G1 X111.558 Y104.21 E0.49691
G1 X111.558 Y102.146 E0.52437
G1 X113.621 Y102.146 E0.55181
G1 X113.621 Y99.03 E0.59327
G1 X111.558 Y99.03 E0.62071
G1 X111.558 Y96.967 E0.64816
G1 X108.442 Y96.967 E0.68962
G1 X108.442 Y99.03 E0.71706
G1 X106.379 Y99.03 E0.74451
G1 X106.379 Y102.146 E0.78596
G1 X108.442 Y102.146 E0.81341
G1 F1500 E-5.68659
G1 F300 Z0.28
G0 F6000 X109.674 Y107.124 Z0.28
;TYPE:WALL-INNER
G1 F300 Z0.08
G1 F1500 E0.81341
G1 F1200 X109.104 Y107.07 E0.82103
G1 X109.043 Y107.061 E0.82185
G1 X108.472 Y106.951 E0.82958
G1 X107.85 Y106.767 E0.83821
G1 X107.259 Y106.529 E0.84669
G1 X106.729 Y106.253 E0.85464
G1 X106.2 Y105.916 E0.86298
G1 X105.685 Y105.508 E0.87173
G1 X105.235 Y105.072 E0.88006
G1 X104.843 Y104.616 E0.88806
G1 X104.474 Y104.092 E0.89659
G1 X104.183 Y103.581 E0.90441
G1 X104.159 Y103.535 E0.9051
G1 X103.92 Y103.004 E0.91285
G1 X103.699 Y102.35 E0.92203
G1 X103.598 Y101.929 E0.92779
G1 X103.584 Y101.862 E0.9287
G1 X103.521 Y101.497 E0.93363
G1 X103.458 Y100.587 E0.94577
G1 X103.521 Y99.676 E0.95792
G1 X103.593 Y99.261 E0.96352
G1 X103.71 Y98.778 E0.97013
G1 X103.919 Y98.172 E0.97866
G1 X104.158 Y97.641 E0.98641
G1 X104.182 Y97.596 E0.98709
G1 X104.481 Y97.074 E0.99509
G1 X104.842 Y96.561 E1.00343
G1 X105.237 Y96.102 E1.01149
G1 X105.676 Y95.677 E1.01962
G1 X106.222 Y95.247 E1.02887
G1 X106.737 Y94.918 E1.037
G1 X107.255 Y94.649 E1.04476
G1 X107.843 Y94.411 E1.0532
G1 X108.467 Y94.228 E1.06185
G1 X109.085 Y94.11 E1.07022
G1 X109.673 Y94.054 E1.07808
G1 X110.326 Y94.053 E1.08677
G1 X110.896 Y94.107 E1.09439
G1 X110.957 Y94.116 E1.09521
G1 X111.528 Y94.226 E1.10294
G1 X112.15 Y94.409 E1.11157
G1 X112.741 Y94.647 E1.12004
G1 X113.267 Y94.92 E1.12793
G1 X113.806 Y95.265 E1.13644
G1 X114.322 Y95.675 E1.14521
G1 X114.762 Y96.101 E1.15336
G1 X115.157 Y96.56 E1.16141
G1 X115.526 Y97.084 E1.16994
G1 X115.838 Y97.634 E1.17835
G1 X115.998 Y97.987 E1.18351
G1 X116.08 Y98.172 E1.1862
G1 X116.301 Y98.826 E1.19539
G1 X116.416 Y99.31 E1.202
G1 X116.479 Y99.676 E1.20695
G1 X116.542 Y100.587 E1.21909
G1 X116.479 Y101.499 E1.23126
G1 X116.416 Y101.867 E1.23622
G1 X116.407 Y101.915 E1.23687
G1 X116.29 Y102.398 E1.24349
G1 X116.081 Y103.004 E1.25201
G1 X115.846 Y103.526 E1.25963
G1 X115.818 Y103.58 E1.26044
G1 X115.519 Y104.102 E1.26844
G1 X115.158 Y104.615 E1.27679
G1 X114.749 Y105.089 E1.28512
G1 X114.306 Y105.514 E1.29328
G1 X113.773 Y105.933 E1.3023
G1 X113.269 Y106.255 E1.31026
G1 X112.746 Y106.527 E1.3181
G1 X112.159 Y106.764 E1.32653
G1 X111.529 Y106.95 E1.33527
G1 X110.958 Y107.06 E1.343
G1 X110.897 Y107.069 E1.34382
G1 X110.326 Y107.123 E1.35145
G1 X109.674 Y107.124 E1.36013
G0 F6000 X109.657 Y107.524
;TYPE:WALL-OUTER
G1 F1200 X109.045 Y107.466 E1.36831
G1 X108.978 Y107.456 E1.36921
G1 X108.377 Y107.34 E1.37735
G1 X107.723 Y107.147 E1.38642
G1 X107.087 Y106.891 E1.39554
G1 X106.534 Y106.603 E1.40384
G1 X105.965 Y106.24 E1.41282
G1 X105.426 Y105.813 E1.42197
G1 X104.975 Y105.379 E1.43029
G1 X104.935 Y105.336 E1.43107
G1 X104.528 Y104.863 E1.43938
G1 X104.138 Y104.309 E1.44839
G1 X103.829 Y103.768 E1.45668
G1 X103.8 Y103.713 E1.45751
G1 X103.548 Y103.152 E1.46569
G1 X103.314 Y102.462 E1.47538
G1 X103.206 Y102.011 E1.48155
G1 X103.192 Y101.944 E1.48246
G1 X103.123 Y101.543 E1.48787
G1 X103.057 Y100.588 E1.50061
G1 X103.123 Y99.629 E1.5134
G1 X103.191 Y99.233 E1.51874
G1 X103.204 Y99.166 E1.51965
G1 X103.324 Y98.673 E1.5264
G1 X103.549 Y98.02 E1.53559
G1 X103.799 Y97.464 E1.5437
G1 X103.828 Y97.409 E1.54453
G1 X104.142 Y96.861 E1.55293
G1 X104.527 Y96.314 E1.56183
G1 X104.934 Y95.841 E1.57013
G1 X104.981 Y95.791 E1.57105
G1 X105.417 Y95.372 E1.57909
G1 X105.912 Y94.98 E1.58749
G1 X105.988 Y94.922 E1.58876
G1 X106.538 Y94.571 E1.59744
G1 X107.091 Y94.284 E1.60573
G1 X107.71 Y94.033 E1.61462
G1 X108.376 Y93.838 E1.62385
G1 X108.977 Y93.722 E1.63199
G1 X109.043 Y93.712 E1.63288
G1 X109.532 Y93.664 E1.63942
G1 X109.652 Y93.654 E1.64102
G1 X110.343 Y93.653 E1.65021
G1 X110.955 Y93.711 E1.65839
G1 X111.022 Y93.721 E1.65929
G1 X111.623 Y93.837 E1.66744
G1 X112.277 Y94.029 E1.67651
G1 X112.913 Y94.285 E1.68563
G1 X113.467 Y94.573 E1.69393
G1 X114.036 Y94.937 E1.70292
G1 X114.582 Y95.371 E1.7122
G1 X115.018 Y95.79 E1.72024
G1 X115.065 Y95.84 E1.72116
G1 X115.472 Y96.313 E1.72946
G1 X115.862 Y96.867 E1.73847
G1 X116.171 Y97.408 E1.74676
G1 X116.195 Y97.453 E1.74744
G1 X116.364 Y97.825 E1.75288
G1 X116.452 Y98.024 E1.75577
G1 X116.686 Y98.714 E1.76546
G1 X116.794 Y99.165 E1.77163
G1 X116.807 Y99.225 E1.77245
G1 X116.877 Y99.629 E1.77791
G1 X116.943 Y100.588 E1.79069
G1 X116.877 Y101.543 E1.80343
G1 X116.809 Y101.943 E1.80883
G1 X116.796 Y102.01 E1.80974
G1 X116.676 Y102.503 E1.81649
G1 X116.451 Y103.156 E1.82567
G1 X116.201 Y103.712 E1.83379
G1 X116.172 Y103.767 E1.83461
G1 X115.858 Y104.315 E1.84302
G1 X115.473 Y104.862 E1.85191
G1 X115.066 Y105.335 E1.86022
G1 X115.026 Y105.378 E1.861
G1 X114.575 Y105.811 E1.86932
G1 X114.003 Y106.261 E1.879
G1 X113.463 Y106.605 E1.88752
G1 X112.915 Y106.89 E1.89573
G1 X112.29 Y107.143 E1.9047
G1 X111.624 Y107.339 E1.91394
G1 X111.023 Y107.455 E1.92208
G1 X110.956 Y107.465 E1.92298
G1 X110.343 Y107.523 E1.93118
G1 X109.657 Y107.524 E1.9403
G0 F6000 X109.677 Y107.085
G0 X109.689 Y106.734
;TYPE:SKIN
G1 F1200 X109.159 Y106.684 E1.94739
G1 X109.108 Y106.676 E1.94807
G1 X108.565 Y106.572 E1.95543
G1 X107.981 Y106.398 E1.96353
G1 X107.421 Y106.173 E1.97156
G1 X106.922 Y105.914 E1.97904
G1 X106.429 Y105.6 E1.98682
G1 X105.944 Y105.215 E1.99506
G1 X105.517 Y104.802 E2.00296
G1 X105.147 Y104.371 E2.01052
G1 X104.806 Y103.886 E2.01841
G1 X104.505 Y103.356 E2.02652
G1 X104.284 Y102.863 E2.0337
G1 X104.074 Y102.243 E2.04241
G1 X103.986 Y101.875 E2.04745
G1 X103.966 Y101.782 E2.04871
G1 X103.911 Y101.463 E2.05302
G1 X103.85 Y100.587 E2.0647
G1 X103.911 Y99.703 E2.07649
G1 X103.975 Y99.34 E2.08139
G1 X104.084 Y98.89 E2.08755
G1 X104.286 Y98.305 E2.09579
G1 X104.512 Y97.804 E2.1031
G1 X104.812 Y97.281 E2.11112
G1 X105.146 Y96.806 E2.11885
G1 X105.526 Y96.364 E2.1266
G1 X105.929 Y95.974 E2.13406
G1 X106.447 Y95.566 E2.14283
G1 X106.933 Y95.256 E2.1505
G1 X107.425 Y95 E2.15788
G1 X107.969 Y94.78 E2.16569
G1 X108.553 Y94.609 E2.17378
G1 X109.144 Y94.496 E2.18179
G1 X109.69 Y94.444 E2.18909
G1 X110.311 Y94.443 E2.19735
G1 X110.841 Y94.493 E2.20443
G1 X110.892 Y94.501 E2.20512
G1 X111.441 Y94.607 E2.21256
G1 X112.013 Y94.775 E2.22049
G1 X112.571 Y94.999 E2.22849
G1 X113.087 Y95.267 E2.23622
G1 X113.574 Y95.579 E2.24392
G1 X114.062 Y95.967 E2.25221
G1 X114.48 Y96.371 E2.25995
G1 X114.853 Y96.805 E2.26756
G1 X115.192 Y97.287 E2.2754
G1 X115.491 Y97.813 E2.28345
G1 X115.719 Y98.321 E2.29086
G1 X115.923 Y98.923 E2.29931
G1 X116.036 Y99.4 E2.30583
G1 X116.089 Y99.703 E2.30993
G1 X116.15 Y100.587 E2.32172
G1 X116.089 Y101.465 E2.33343
G1 X116.023 Y101.844 E2.33854
G1 X115.916 Y102.286 E2.34459
G1 X115.715 Y102.869 E2.3528
G1 X115.499 Y103.348 E2.35979
G1 X115.479 Y103.387 E2.36037
G1 X115.188 Y103.895 E2.36816
G1 X114.854 Y104.371 E2.3759
G1 X114.464 Y104.822 E2.38383
G1 X114.051 Y105.219 E2.39145
G1 X113.554 Y105.61 E2.39986
G1 X113.065 Y105.922 E2.40758
G1 X112.586 Y106.172 E2.41477
G1 X112.038 Y106.393 E2.42263
G1 X111.436 Y106.571 E2.43098
G1 X110.893 Y106.675 E2.43834
G1 X110.842 Y106.683 E2.43902
G1 X110.309 Y106.733 E2.44615
G1 X109.689 Y106.734 E2.45439
G1 F1500 E-4.04561
G1 F300 Z0.28
G0 F6000 X107.652 Y105 Z0.28
G1 F300 Z0.08
G1 F1500 E2.45439
G1 F1200 X112.348 Y105 E2.51687
G1 X112.348 Y102.936 E2.54433
G1 X114.411 Y102.936 E2.57178
G1 X114.411 Y98.24 E2.63425
G1 X112.348 Y98.24 E2.6617
G1 X112.348 Y96.177 E2.68914
G1 X107.652 Y96.177 E2.75162
G1 X107.652 Y98.24 E2.77907
G1 X105.589 Y98.24 E2.80651
G1 X105.589 Y102.936 E2.86899
G1 X107.652 Y102.936 E2.89644
G1 X107.652 Y105 E2.92389
G1 F1500 E-3.57611
G1 F300 Z0.28
G0 F6000 X104.963 Y103.832 Z0.28
G1 F300 Z0.08
G1 F1500 E2.92389
G1 F1200 X106.739 Y105.608 E2.95731
G0 F6000 X107.491 Y104.663
G1 F1200 X105.924 Y103.096 E2.98679
G0 F6000 X106.49 Y103.096
G1 F1200 X107.491 Y104.097 E3.00563
G0 F6000 X107.491 Y103.531
G1 F1200 X107.055 Y103.096 E3.01382
G1 F1500 E-3.48618
G1 F300 Z0.28
G0 F6000 X105.428 Y102.599 Z0.28
G1 F300 Z0.08
G1 F1500 E3.01382
G1 F1200 X104.055 Y101.226 E3.03965
G0 F6000 X104.012 Y100.618
G1 F1200 X105.428 Y102.034 E3.06629
G0 F6000 X105.428 Y101.468
G1 F1200 X104.045 Y100.085 E3.09232
G0 F6000 X104.096 Y99.57
G1 F1200 X105.428 Y100.902 E3.11738
G0 F6000 X105.428 Y100.337
G1 F1200 X104.195 Y99.104 E3.14058
G0 F6000 X104.327 Y98.671
G1 F1200 X105.428 Y99.771 E3.16128
G0 F6000 X105.428 Y99.205
G1 F1200 X104.481 Y98.258 E3.1791
G0 F6000 X104.657 Y97.869
G1 F1200 X105.428 Y98.639 E3.1936
G0 F6000 X105.433 Y98.079
G1 F1200 X104.863 Y97.51 E3.20431
G0 F6000 X105.086 Y97.167
G1 F1200 X105.999 Y98.079 E3.22148
G0 F6000 X106.565 Y98.079
G1 F1200 X105.325 Y96.84 E3.2448
G0 F6000 X105.588 Y96.537
G1 F1200 X107.13 Y98.079 E3.27381
G0 F6000 X107.491 Y97.874
G1 F1200 X105.87 Y96.253 E3.30431
G0 F6000 X106.169 Y95.987
G1 F1200 X107.491 Y97.309 E3.32918
G0 F6000 X107.491 Y96.743
G1 F1200 X106.486 Y95.738 E3.34809
G0 F6000 X106.827 Y95.513
G1 F1200 X107.491 Y96.177 E3.36059
G0 F6000 X107.896 Y96.016
G1 F1200 X107.184 Y95.305 E3.37397
G0 F6000 X107.562 Y95.117
G1 F1200 X108.461 Y96.016 E3.39089
G0 F6000 X109.027 Y96.016
G1 F1200 X107.964 Y94.953 E3.41089
G0 F6000 X108.398 Y94.821
G1 F1200 X109.593 Y96.016 E3.43337
G0 F6000 X110.158 Y96.016
G1 F1200 X108.856 Y94.714 E3.45787
G0 F6000 X109.344 Y94.637
G1 F1200 X110.724 Y96.016 E3.48382
G0 F6000 X111.29 Y96.016
G1 F1200 X109.877 Y94.603 E3.51041
G0 F6000 X110.457 Y94.617
G1 F1200 X111.855 Y96.016 E3.53672
G0 F6000 X112.421 Y96.016
G1 F1200 X111.11 Y94.705 E3.56139
G0 F6000 X111.871 Y94.9
G1 F1200 X115.682 Y98.712 E3.6331
G0 F6000 X115.887 Y99.482
G1 F1200 X114.569 Y98.164 E3.6579
G0 F6000 X114.484 Y98.079
G1 F1200 X112.507 Y96.102 E3.69509
G0 F6000 X112.507 Y96.667
G1 F1200 X113.919 Y98.079 E3.72166
G0 F6000 X113.353 Y98.079
G1 F1200 X112.507 Y97.233 E3.73758
G0 F6000 X112.507 Y97.799
G1 F1200 X112.787 Y98.079 E3.74285
G1 F1500 E-2.75715
G1 F300 Z0.28
G0 F6000 X114.569 Y98.73 Z0.28
G1 F300 Z0.08
G1 F1500 E3.74285
G1 F1200 X115.956 Y100.117 E3.76894
G0 F6000 X115.98 Y100.706
G1 F1200 X114.569 Y99.296 E3.79548
G0 F6000 X114.569 Y99.861
G1 F1200 X115.943 Y101.235 E3.82133
G0 F6000 X115.878 Y101.736
G1 F1200 X114.569 Y100.427 E3.84596
G0 F6000 X114.569 Y100.993
G1 F1200 X115.772 Y102.196 E3.86859
G0 F6000 X115.631 Y102.62
G1 F1200 X114.569 Y101.558 E3.88858
G0 F6000 X114.569 Y102.124
G1 F1200 X115.469 Y103.024 E3.90551
G0 F6000 X115.283 Y103.404
G1 F1200 X114.569 Y102.69 E3.91894
G0 F6000 X114.409 Y103.096
G1 F1200 X115.077 Y103.763 E3.9315
G0 F6000 X114.848 Y104.1
G1 F1200 X113.844 Y103.096 E3.95039
G0 F6000 X113.278 Y103.096
G1 F1200 X114.601 Y104.419 E3.97528
G0 F6000 X114.337 Y104.72
G1 F1200 X112.712 Y103.096 E4.00585
G0 F6000 X112.507 Y103.456
G1 F1200 X114.048 Y104.997 E4.03484
G0 F6000 X113.742 Y105.257
G1 F1200 X112.507 Y104.021 E4.05809
G0 F6000 X112.507 Y104.587
G1 F1200 X113.422 Y105.503 E4.07531
G0 F6000 X113.076 Y105.723
G1 F1200 X112.507 Y105.153 E4.08603
G0 F6000 X111.948 Y105.16
G1 F1200 X112.712 Y105.924 E4.1004
G0 F6000 X112.326 Y106.103
G1 F1200 X111.382 Y105.16 E4.11815
G0 F6000 X110.817 Y105.16
G1 F1200 X111.918 Y106.261 E4.13887
G0 F6000 X111.481 Y106.389
G1 F1200 X110.251 Y105.16 E4.162
G0 F6000 X109.685 Y105.16
G1 F1200 X111.014 Y106.488 E4.187
G0 F6000 X110.513 Y106.553
G1 F1200 X109.12 Y105.16 E4.21321
G0 F6000 X108.554 Y105.16
G1 F1200 X109.967 Y106.573 E4.23979
G0 F6000 X109.371 Y106.543
G1 F1200 X107.988 Y105.16 E4.26581
G0 F6000 X107.882 Y106.185
G1 F1200 X104.396 Y102.699 E4.3314
G0 F6000 X104.154 Y101.891
G1 F1200 X108.697 Y106.435 E4.41688
G1 F1500 E-2.08312
G1 F300 Z0.28
G0 F6000 X115.249 Y97.713 Z0.28
G1 F300 Z0.08
G1 F1500 E4.41688
G1 F1200 X112.871 Y95.335 E4.46163
G1 F1500 E-2.03837
G1 F300 Z0.28
;MESH:Screw.STL
G0 F6000 X109.554 Y118.938 Z0.28
;TYPE:WALL-INNER
G1 F300 Z0.08
G1 F1500 E4.46163
G1 F1200 X109.554 Y121.001 E4.48907
G1 X113.557 Y121.001 E4.54233
G1 X113.557 Y118.938 E4.56977
G1 X115.621 Y118.938 E4.59723
G1 X115.621 Y114.934 E4.6505
G1 X113.557 Y114.934 E4.67796
G1 X113.557 Y112.87 E4.70542
G1 X109.554 Y112.87 E4.75868
G1 X109.554 Y114.934 E4.78614
G1 X107.49 Y114.934 E4.8136
G1 X107.49 Y118.938 E4.86687
G1 X109.554 Y118.938 E4.89433
G0 F6000 X109.954 Y118.538
;TYPE:WALL-OUTER
G1 F1200 X109.954 Y120.601 E4.92177
G1 X113.157 Y120.601 E4.96439
G1 X113.157 Y118.538 E4.99183
G1 X115.221 Y118.538 E5.01929
G1 X115.221 Y115.334 E5.06192
G1 X113.157 Y115.334 E5.08938
G1 X113.157 Y113.27 E5.11684
G1 X109.954 Y113.27 E5.15945
G1 X109.954 Y115.334 E5.18691
G1 X107.89 Y115.334 E5.21437
G1 X107.89 Y118.538 E5.257
G1 X109.954 Y118.538 E5.28446
G1 F1500 E-1.21554
G1 F300 Z0.28
G0 F6000 X111.556 Y123.479 Z0.28
;TYPE:WALL-INNER
G1 F300 Z0.08
G1 F1500 E5.28446
G1 F1200 X110.826 Y123.438 E5.29418
G1 X110.225 Y123.342 E5.30228
G1 X109.866 Y123.258 E5.30718
G1 X109.349 Y123.096 E5.31439
G1 X108.865 Y122.9 E5.32134
G1 X108.725 Y122.832 E5.32341
G1 X108.406 Y122.67 E5.32817
G1 X107.959 Y122.403 E5.3351
G1 X107.538 Y122.102 E5.34198
G1 X107.162 Y121.785 E5.34853
G1 X106.927 Y121.555 E5.3529
G1 X106.768 Y121.395 E5.3559
G1 X106.43 Y121.004 E5.36278
G1 X106.124 Y120.586 E5.36967
G1 X105.856 Y120.149 E5.37649
G1 X105.621 Y119.693 E5.38331
G1 X105.425 Y119.223 E5.39009
G1 X105.268 Y118.743 E5.39681
G1 X105.14 Y118.216 E5.40402
G1 X105.054 Y117.683 E5.41121
G1 X105.017 Y117.195 E5.41772
G1 X105.016 Y116.679 E5.42458
G1 X105.057 Y116.161 E5.43149
G1 X105.14 Y115.646 E5.43843
G1 X105.26 Y115.153 E5.44519
G1 X105.423 Y114.652 E5.45219
G1 X105.618 Y114.186 E5.45892
G1 X105.659 Y114.103 E5.46015
G1 X105.861 Y113.714 E5.46598
G1 X106.124 Y113.286 E5.47266
G1 X106.436 Y112.86 E5.47969
G1 X106.783 Y112.459 E5.48674
G1 X107.16 Y112.088 E5.49378
G1 X107.537 Y111.771 E5.50033
G1 X107.971 Y111.461 E5.50743
G1 X108.391 Y111.209 E5.51394
G1 X108.87 Y110.97 E5.52107
G1 X109.355 Y110.774 E5.52802
G1 X109.864 Y110.615 E5.53512
G1 X110.251 Y110.525 E5.54041
G1 X110.824 Y110.434 E5.54812
G1 X111.556 Y110.393 E5.55788
G1 X112.287 Y110.434 E5.56762
G1 X112.876 Y110.527 E5.57555
G1 X113.251 Y110.616 E5.58068
G1 X113.75 Y110.772 E5.58763
G1 X114.254 Y110.975 E5.59486
G1 X114.688 Y111.191 E5.60131
G1 X115.146 Y111.465 E5.60841
G1 X115.573 Y111.77 E5.61539
G1 X115.95 Y112.087 E5.62195
G1 X116.178 Y112.31 E5.62619
G1 X116.348 Y112.481 E5.6294
G1 X116.676 Y112.861 E5.63608
